X: 69
T: Vigers polska
R: hambopolska
M: 3/4
L: 1/8
K: G
"G"g2 B2 "D"c>A | "G"G>F G<B d2 | "C"c>B c>g "D"e>c | "G"cB B4 |
"D"A>B c<d e2 | d>A F<A d2 | d>c B<c A>F | "G"G2 G4 :|
|: "G"B2 "D7"c2 "G"d>d | "C"e2 e4 | g>g f2 e2 | "G"d>g B4 |
"D"A>B c<d e2 |d>A F<A d2 | d>c B<c A>F| "G"G2 G4 :|

